_includes/icons/color-euro.svg

<svg fill="#666" height="50" viewBox="0 0 48 48" width="50" xmlns="http://www.w3.org/2000/svg"><path d="m44 24c0 11.044-8.956 20-20 20s-20-8.956-20-20 8.956-20 20-20 20 8.956 20 20z" fill="#3f51b5"/><path d="m27 27h-5c0 4 2 4.465 4.621 4.465 1.047 0 1.992-.148 2.84-.453l.539 3.562c-1.234.281-2.512.426-3.828.426-2.621 0-4.699-.695-6.23-2.086-1.532-1.387-1.864-3.441-1.942-5.914h-3v-2h3v-2h-3v-2h3c.172-2.473.602-4.578 2.184-5.945 1.578-1.371 3.675-2.055 6.289-2.055 1.047 0 2.223.152 3.527.457l-.539 3.578c-.938-.313-1.859-.473-2.766-.473-2.82.001-4.695 1.438-4.636 4.438h4.941v2h-5v2h5z" fill="#ffd600"/></svg>

<svg xmlns="http://www.w3.org/2000/svg" viewBox="0 0 48 48" width="50" height="50" fill="#666"><path d="M44,24c0,11.044-8.956,20-20,20S4,35.044,4,24S12.956,4,24,4S44,12.956,44,24z" fill="#3f51b5"/><path d="M27,27h-5c0,4,2,4.465,4.621,4.465c1.047,0,1.992-0.148,2.84-0.453L30,34.574	C28.766,34.855,27.488,35,26.172,35c-2.621,0-4.699-0.695-6.23-2.086C18.41,31.527,18.078,29.473,18,27h-3v-2h3v-2h-3v-2h3	c0.172-2.473,0.602-4.578,2.184-5.945C21.762,13.684,23.859,13,26.473,13c1.047,0,2.223,0.152,3.527,0.457l-0.539,3.578	c-0.938-0.313-1.859-0.473-2.766-0.473C23.875,16.563,22,18,22.059,21H27v2h-5v2h5V27z" fill="#ffd600"/></svg>
